X: 140
T:Crompton's Slow March. JaW.140
M:C
L:1/8
Q:120
S:James Winder Ms, Lancashire, 1835-41
R:march
O:England
A:Wyresdale,Lancashire
H:1/8
Z:vmp.Chris Partington, Aug 2004
K:F
F|A2F>A c2d>e|f2f>f f2z/c/d/e/|fedc BAGF|c2c>cc2zF|!
A2F>A c2d>e|f2f>f f2e>f|g>ec>d e2"tr"d2|c2c>cc3:|!
|:c|g2g>g g>ab>g|a2f>f f2zc|dcdc BAGF|c2c>cc2zF|!
A2F>A c2d>e|f2f>f f2zc|d/b/a/b/ c'/b/a/g/ f2e2|f2f>f f3:|]
